Surfn/16/status/telegram-panel.svg

<?xml version="1.0" encoding="UTF-8" standalone="no"?>
<svg
   xmlns:dc="http://purl.org/dc/elements/1.1/"
   xmlns:cc="http://creativecommons.org/ns#"
   xmlns:rdf="http://www.w3.org/1999/02/22-rdf-syntax-ns#"
   xmlns:svg="http://www.w3.org/2000/svg"
   xmlns="http://www.w3.org/2000/svg"
   xmlns:sodipodi="http://sodipodi.sourceforge.net/DTD/sodipodi-0.dtd"
   xmlns:inkscape="http://www.inkscape.org/namespaces/inkscape"
   width="16"
   viewBox="0 0 4.5155557 4.5155557"
   height="16"
   id="svg2"
   version="1.1"
   inkscape:version="0.91 r13725"
   sodipodi:docname="telegram-panel.svg">
  <metadata
     id="metadata10">
    <rdf:RDF>
      <cc:Work
         rdf:about="">
        <dc:format>image/svg+xml</dc:format>
        <dc:type
           rdf:resource="http://purl.org/dc/dcmitype/StillImage" />
        <dc:title></dc:title>
      </cc:Work>
    </rdf:RDF>
  </metadata>
  <defs
     id="defs8" />
  <sodipodi:namedview
     pagecolor="#ffffff"
     bordercolor="#666666"
     borderopacity="1"
     objecttolerance="10"
     gridtolerance="10"
     guidetolerance="10"
     inkscape:pageopacity="0"
     inkscape:pageshadow="2"
     inkscape:window-width="1920"
     inkscape:window-height="1022"
     id="namedview6"
     showgrid="false"
     inkscape:zoom="9.8333333"
     inkscape:cx="12"
     inkscape:cy="12"
     inkscape:window-x="0"
     inkscape:window-y="0"
     inkscape:window-maximized="1"
     inkscape:current-layer="svg2" />
  <path
     d="m 3.8500894,0.77470499 c -0.031118,-0.003795 -0.06603,0.002277 -0.1001833,0.0182151 L 0.71405011,1.9708323 c -0.2071972,0.083486 -0.2056793,0.2003664 -0.0379482,0.251976 L 1.454799,2.4671947 3.2580974,1.322677 c 0.085004,-0.05161 0.1631773,-0.024287 0.099424,0.033394 L 1.896516,2.6819815 1.854773,3.0273101 1.643022,2.3487963 1.4555579,2.4679537 c 0.091835,0.2914421 0.1813924,0.5836433 0.273986,0.8743265 0.0296,0.078173 0.1039781,0.099424 0.170008,0.1009422 0.099424,0.00304 0.2663963,-0.1358545 0.2663963,-0.1358545 L 2.4338625,3.0811966 3.1670218,3.6261327 c 0.1449621,0.08045 0.2496991,0.038707 0.2853704,-0.1358545 L 3.9692467,1.0395834 C 4.0087128,0.87944202 3.9434419,0.78457152 3.8500894,0.77470499 M 2.0946056,2.8292205 2.2570239,2.9498958 2.0596933,3.1161089 2.0946056,2.8292205"
     style="fill:#aaaaaa;fill-opacity:1"
     id="path4"
     inkscape:connector-curvature="0" />
</svg>

<svg xmlns="http://www.w3.org/2000/svg" width="16" viewBox="0 0 4.5155557 4.5155557" height="16">
 <path d="m 3.774 0.873 c -0.03 -0.003 -0.063 0.002 -0.096 0.018 l -2.909 1.128 c -0.199 0.08 -0.197 0.192 -0.036 0.241 l 0.746 0.235 1.728 -1.097 c 0.082 -0.05 0.156 -0.023 0.095 0.032 l -1.4 1.271 -0.04 0.331 -0.203 -0.65 -0.18 0.114 c 0.088 0.279 0.174 0.559 0.263 0.838 0.028 0.075 0.1 0.095 0.163 0.097 c 0.095 0.003 0.255 -0.13 0.255 -0.13 l 0.257 -0.217 0.703 0.522 c 0.139 0.077 0.239 0.037 0.274 -0.13 l 0.495 -2.348 c 0.038 -0.153 -0.025 -0.244 -0.114 -0.254 m -1.682 1.969 0.156 0.115 -0.189 0.16 0.033 -0.275" style="fill:#ececec;fill-opacity:1"/>
</svg>
